X: 38
T:A ei Di'r Deryn Du
T:Blackbird Wilt Thou Go
M:C
L:1/8
Q:100
S:Robin Huw Bowen
R:
A:Wales
Z:brian_martin12345@yahoo.com
K:Cm
G2|cGcde3g|fd=Bdf2ed|c>deed2G>G|G6||]
ef|gge/f/gf2ef|gedc=B3c/d/|efgag2fe/d/|
e>dc=Bc2ee|d>=B GGG2c>d|efgag2fe|dc c=Bc2||
